public/avatar/shoe/150.svg

<svg xmlns:xlink="http://www.w3.org/1999/xlink" height="38.3" width="36.05" xmlns="http://www.w3.org/2000/svg"><use height="16.1" transform="translate(8.1 12.15)" width="24.2" xlink:href="#a"/><defs><g id="a" fill-rule="evenodd"><path d="M6.1-.45Q4.5-2.25.45-2.6q-3.65-.35-4.65.5l-1 .85q-6.05 5.65-9.85 7.9l-.2.15q-.3.35-.45 1.25-.1 1.6.8 3.7l.25.25q4.85 3.3 17.5-1.2l.7-.15q4.25 0 4.95-2.45v-.25q-1.25-6.8-2.4-8.4" transform="translate(15.7 2.7)"/><path d="m.35-1.5-3.75.25-3.9 3.65q-3.95 3.5-6.95 5.25l-.2.75q-.05 1.1.65 2.6 5.3 3.65 17.25-1.6 3.4 0 3.8-1.45Q6.1 1.9 5.05.15 3.7-1.1.35-1.5" fill="#323333" transform="translate(15.7 2.7)"/><path d="m.7-1.6-2.4-.25q-.85 0-2.05.85-1.3.95-.25 1.5.95.55 3.3.8l2.55.4.85 1.45.85 2.05 1.5 2.1q1.7.25 2.15-1.55.1-.55-.4-1.7L6.7 3l-.45-1.2Q5.2-.5 3.6-.95L.7-1.6" fill="#202121" transform="translate(15.7 2.7)"/><path d="m-6.95 2.25.2-.2q.75-.6 4.7.6Q-6.7 7.25-8 7.7q-3.15.45-5.25-.45 4.95-3.45 6.3-5m6.55-.1-.35-.4Q-6-.35-7.65 1.2l-.15.2q-1.45 1.55-6.95 5.4l-.3.45.15.5q1.85 1.95 7.2 1.15.95-.35 3.8-2.9 2.75-2.35 3.4-3.3.2-.3.1-.55" transform="translate(15.7 2.7)"/><path d="M2.2 7.65q-10.4 4.25-16.7 1.3-.55-.25-.9.3-.25.65.35.8 4.15 1.95 10.6.9 5.2-.8 7.3-2.3 3.4 0 5.1-1.65l.15-.45-.15-.5q-.45-.3-.9 0-1.2 1.2-4.45 1.4l-.4.2" transform="translate(15.7 2.7)"/><path d="M-1.4 8.65q3.25-.9 3.6-1.6Q-.3 8.25-6.5 9q-.4.05.6.45l4.5-.8m4-1.75q2.5.1 3.15-.5l-.15-.6q-1.75.85-3 1.1" fill="#fff" transform="translate(15.7 2.7)"/><path d="M5.95 9.5q1.6-.6 1.55-2l-2.45.4-1.3.3q-.3.85.6 1.25l1.6.05m-9.9-4.85 1-1.2 1.05-.8q-1.05-.9-2.65-.9-2 0-2.45.45l-.75.6-1.05.9q-.15.3.75.8.85.5.85 1-.05.5-2.7 2.4l2.7-.35 1.65-1.35 1.6-1.55" fill="#202121" transform="translate(15.7 2.7)"/></g></defs></svg>

<?xml version="1.0" encoding="UTF-8" standalone="no"?>
<svg xmlns:xlink="http://www.w3.org/1999/xlink" height="38.3px" width="36.05px" xmlns="http://www.w3.org/2000/svg">
  <g transform="matrix(1.0, 0.0, 0.0, 1.0, 23.8, 14.85)">
    <use height="16.1" transform="matrix(1.0, 0.0, 0.0, 1.0, -15.7, -2.7)" width="24.2" xlink:href="#shape0"/>
  </g>
  <defs>
    <g id="shape0" transform="matrix(1.0, 0.0, 0.0, 1.0, 15.7, 2.7)">
      <path d="M6.1 -0.45 Q4.5 -2.25 0.45 -2.6 -3.2 -2.95 -4.2 -2.1 L-5.2 -1.25 Q-11.25 4.4 -15.05 6.65 L-15.25 6.8 Q-15.55 7.15 -15.7 8.05 -15.8 9.65 -14.9 11.75 L-14.65 12.0 Q-9.8 15.3 2.85 10.8 L3.55 10.65 Q7.8 10.65 8.5 8.2 L8.5 7.95 Q7.25 1.15 6.1 -0.45" fill="#000000" fill-rule="evenodd" stroke="none"/>
      <path d="M0.35 -1.5 L-3.4 -1.25 -7.3 2.4 Q-11.25 5.9 -14.25 7.65 L-14.45 8.4 Q-14.5 9.5 -13.8 11.0 -8.5 14.65 3.45 9.4 6.85 9.4 7.25 7.95 6.1 1.9 5.05 0.15 3.7 -1.1 0.35 -1.5" fill="#323333" fill-rule="evenodd" stroke="none"/>
      <path d="M0.7 -1.6 L-1.7 -1.85 Q-2.55 -1.85 -3.75 -1.0 -5.05 -0.05 -4.0 0.5 -3.05 1.05 -0.7 1.3 L1.85 1.7 2.7 3.15 3.55 5.2 5.05 7.3 Q6.75 7.55 7.2 5.75 7.3 5.2 6.8 4.05 L6.7 3.0 6.25 1.8 Q5.2 -0.5 3.6 -0.95 L0.7 -1.6" fill="#202121" fill-rule="evenodd" stroke="none"/>
      <path d="M-6.95 2.25 L-6.75 2.05 Q-6.0 1.45 -2.05 2.65 -6.7 7.25 -8.0 7.7 -11.15 8.15 -13.25 7.25 -8.3 3.8 -6.95 2.25 M-0.4 2.15 L-0.75 1.75 Q-6.0 -0.35 -7.65 1.2 L-7.8 1.4 Q-9.25 2.95 -14.75 6.8 L-15.05 7.25 -14.9 7.75 Q-13.05 9.7 -7.7 8.9 -6.75 8.55 -3.9 6.0 -1.15 3.65 -0.5 2.7 -0.3 2.4 -0.4 2.15" fill="#000000" fill-rule="evenodd" stroke="none"/>
      <path d="M2.2 7.65 Q-8.2 11.9 -14.5 8.95 -15.05 8.7 -15.4 9.25 -15.65 9.9 -15.05 10.05 -10.9 12.0 -4.45 10.95 0.75 10.15 2.85 8.65 6.25 8.65 7.95 7.0 L8.1 6.55 7.95 6.05 Q7.5 5.75 7.05 6.05 5.85 7.25 2.6 7.45 L2.2 7.65" fill="#000000" fill-rule="evenodd" stroke="none"/>
      <path d="M-1.4 8.65 Q1.85 7.75 2.2 7.05 -0.3 8.25 -6.5 9.0 -6.9 9.05 -5.9 9.45 L-1.4 8.65" fill="#ffffff" fill-rule="evenodd" stroke="none"/>
      <path d="M2.6 6.9 Q5.1 7.0 5.75 6.4 L5.6 5.8 Q3.85 6.65 2.6 6.9" fill="#ffffff" fill-rule="evenodd" stroke="none"/>
      <path d="M5.95 9.5 Q7.55 8.9 7.5 7.5 L5.05 7.9 3.75 8.2 Q3.45 9.05 4.35 9.45 L5.95 9.5" fill="#202121" fill-rule="evenodd" stroke="none"/>
      <path d="M-3.95 4.65 L-2.95 3.45 -1.9 2.65 Q-2.95 1.75 -4.55 1.75 -6.55 1.75 -7.0 2.2 L-7.75 2.8 -8.8 3.7 Q-8.95 4.0 -8.05 4.5 -7.2 5.0 -7.2 5.5 -7.25 6.0 -9.9 7.9 L-7.2 7.55 -5.55 6.2 -3.95 4.65" fill="#202121" fill-rule="evenodd" stroke="none"/>
    </g>
  </defs>
</svg>
